!!!COM: Bach, Johann Sebastian
!!!OTL: Liebster Jesu, wir sind hier
!!!ONM: No. 328
!!!OCL: Erk
!!!YOE: Riemenschneider, Albert
!!!OPR: 371 Harmonized Chorales and 69 Chorale Melodies with Figured Bass
!!!OPT: Bach Chorale Harmonizations
**kern	**kern	**kern	**kern
! bass	! tenor	! alto	! soprano
*M4/4	*M4/4	*M4/4	*M4/4
*G:	*G:	*G:	*G:
=1	=1	=1	=1
4GG	8G	4d	4b
.	8A	.	.
[4G	4B	4d	8a
.	.	.	8g
8G]	4A	4d	4a
8F#	.	.	.
8E	4A	4f#	4dd
8D	.	.	.
=2	=2	=2	=2
8G	8B	4d	4b
8A	8c	.	.
8B	4d	8d	4g
8G	.	8e	.
2D;	2d;	2f#;	2a;
=3	=3	=3	=3
8EE	4B	4e	4g
[8E	.	.	.
8E]	4B	4fn	4g
8D	.	.	.
8CC	4c	4e	4g
[8C	.	.	.
8C]	4G	4d	4g
8BB	.	.	.
=4	=4	=4	=4
4AA	4c	8e	4a
.	.	8f#	.
8GG	4d	4g	4b
8BB	.	.	.
8C	8e	4g	2a
8AA	8c	.	.
4D	8A	4f#	.
.	16d	.	.
.	16c	.	.
=5	=5	=5	=5
1GG;	1B;	1d;	1g;
!! Repeat from the beginning.
=1	=1	=1	=1
4GG	8G	4d	4b
.	8A	.	.
[4G	4B	4d	8a
.	.	.	8g
8G]	4A	4d	4a
8F#	.	.	.
8E	4A	4f#	4dd
8D	.	.	.
=2	=2	=2	=2
8G	8B	4d	4b
8A	8c	.	.
8B	4d	8d	4g
8G	.	8e	.
2D;	2d;	2f#;	2a;
=3	=3	=3	=3
8EE	4B	4e	4g
[8E	.	.	.
8E]	4B	4fn	4g
8D	.	.	.
8CC	4c	4e	4g
[8C	.	.	.
8C]	4G	4d	4g
8BB	.	.	.
=4	=4	=4	=4
4AA	4c	8e	4a
.	.	8f#	.
8GG	4d	4g	4b
8BB	.	.	.
8C	8e	4g	2a
8AA	8c	.	.
4D	8A	4f#	.
.	16d	.	.
.	16c	.	.
=5	=5	=5	=5
1GG;	1B;	1d;	1g;
!! Continuing
=6	=6	=6	=6
8G	4G	4B	4d
[8G	.	.	.
8G]	4A	4A	4d
8F#	.	.	.
4E	4G	8B	4e
.	.	8c#	.
[4D	4A	4d	4f#
=7	=7	=7	=7
4D]	4B	4e	4g
4C#	4A	4e	8a
.	.	.	8g
4D	8A	4d	8f#
.	8G	.	8e
4D;	4F#;	4A;	4d;
=8	=8	=8	=8
8BB	4.G	8d	4g
8GG	.	8B	.
8AA	.	8c	4g
8BB	8Fn	8d	.
8C	8E	4e	4g
8D	8F#	.	.
8C	8G	4e	4g
8BB	16A	.	.
.	16B	.	.
=9	=9	=9	=9
4AA	4c	8e	4a
.	.	8f#	.
4GG	4d	[4g	4b
2D	4.d	8g]	2a
.	.	8e	.
.	.	4f#	.
.	8c	.	.
=10	=10	=10	=10
1GG;	1B;	1d;	1g;
==	==	==	==
*-	*-	*-	*-
!!!CDT: 1685/3//-1750/7/28
!!!OCY: Deutschland
!!!AGN: chorale
!!!AST: Baroque
!!!AIN: vox
!!!YOY: 1941
!!!PPP: New York; London
!!!PPR: G. Schirmer
!!!ENC: David Huron
!!!EED: David Huron
!!!YEN: United States of America
!!!YER: 1992
!!!YEC: Copyright 1992 David Huron
!!!YEM: Rights to all derivative electronic formats reserved.
!!!YER: March 20, 1996
!!!AMT: simple quadruple
!!!EEV: 1.1
